X:1
T:Shall You? Shall I?
T:Shall You? Shall I?
T:James McGranahan
T:James McGranahan, 1887
T:Public Domain Courtesy of the Cyber Hymnal™
T:Public Domain Courtesy of the Cyber Hymnal™
C:James McGranahan
Z:Public Domain
Z:Courtesy of the Cyber Hymnal™
%%score 1 ( 2 3 )
L:1/8
Q:1/4=108
M:6/8
K:F
V:1 treble 
V:2 bass 
V:3 bass 
V:1
 [FA][FA][FA] [FA][EG][FA] | [Ac]2 [Ac] [FA]3 | ([Ac][FA])[Bd] [Ac]3 | ([Ac][FA])[Bd] [Ac]3 | %4
w: 1.~Some- one will en- ter the|pear- ly gates|By * and by,|by * and by,|
w: 2.~Some- one will glad- ly his|cross lay down|By * and by,|by * and by,|
w: 3.~Some- one will knock when the|door is shut|By * and by,|by * and by,|
w: 4.~Some- one will sing the tri-|umph- ant song|By * and by,|by * and by,|
 [FA][FA][FA] [FA][EG][FA] | [Ac]2 [Ac] [FA]2 |: [Fc] | [Ec]2 [EG] [FA]2-"^Play 2 times" :| [FA] | %9
w: Taste of the glo- ries that|there a- wait,|Shall|you? shall I?||
w: Faith- ful ap- proved, shall re-|ceive a crown,|Shall|you? shall I?||
w: Hear a voice say- ing, “I|know you not,”|Shall|you? shall I?||
w: Join in the praise with the|blood- bought throng,|Shall|you? shall I?||
 [Fd][Fd][Fd] [Fd][Fe][Fd] | [Fd]2 [Fc] [Fc]3 | [Ac][GB][GB] [GB][Ac][GB] | [FA]2 [GB] [Ac]3 | %13
w: Some- one will tra- vel the|streets of gold,|Beau- ti- ful vi- sions will|there be- hold,|
w: Some- one the glo- ri- ous|King will see,|Ev- er from sor- row of|earth be free,|
w: Some- one will call and shall|not be heard,|Vain- ly will strive when the|door is barred,|
w: Some- one will greet on the|gold- en shore|Loved ones of earth who have|gone be- fore,|
 [FBd][FBd][FBd] [FBd][Fce][FBd] | [FBd]2 [FAc] [FAc]2 |: [Fc] | %16
w: Feast on the plea- sures so|long fore- told:|Shall|
w: Hap- py with Him thro’ e-|ter- ni- ty:|Shall|
w: Some- one will fail of the|saint’s re- ward:|Shall|
w: Safe in the glo- ry for-|ev- er- more:|Shall|
 [Ec]2 [EG] [FA]2-"^Play 2 times" :| [FA] |] %18
w: you? shall I?||
w: you? shall I?||
w: you? shall I?||
w: you? shall I?||
V:2
 [F,C][F,C][F,C] [F,C][F,C][F,C] | [F,F]2 [F,F] [F,C]3 | [F,F]2 [F,F] [F,F]3 | F,2 F, F,3 | %4
 [F,C][F,C][F,C] [F,C][F,C][F,C] | [F,F]2 [F,F] [F,C]2 |: [F,A,] | %7
 [C,G,]2 [C,C] [F,C]2-"^Play 2 times" :| [F,C] | [B,,B,][B,,B,][B,,B,] [B,,B,][B,,C][B,,B,] | %10
 [F,B,]2 [F,A,] [F,A,]3 | [C,C][C,C][C,C] [C,C][C,C][C,C] | [F,C]2 [F,F] [F,F]3 | %13
 [B,,F,][B,,F,][B,,F,] [B,,F,][B,,F,][B,,F,] | F,2 F, F,2 |: [F,A,] | %16
 [C,G,]2 [C,C] [F,C]2-"^Play 2 times" :| [F,C] |] %18
V:3
 x6 | x6 | x6 | F,2 F, F,3 | x6 | x5 |: x | x5 :| x | x6 | x6 | x6 | x6 | x6 | F,2 F, F,2 |: x | %16
 x5 :| x |] %18

